frontend/svgs/biz060.svg

<?xml version="1.0" encoding="UTF-8"?> <svg width="100px" height="100px" viewBox="0 0 100 100" version="1.1" xmlns="http://www.w3.org/2000/svg" xmlns:xlink="http://www.w3.org/1999/xlink"> <g id="60.-Shield" stroke="none" stroke-width="1" fill="none" fill-rule="evenodd" stroke-linecap="round" stroke-linejoin="round"> <path d="M87.525,13.602649 C79.1333333,5.49668874 67.575,2 50,2 C32.425,2 20.8666667,5.49668874 12.475,13.602649 L12,14.0794702 L12,46.8211921 L12,49.6821192 C12,71.4569536 27.0416667,90.8476821 49.525,97.8410596 L50,98 L50.475,97.8410596 C72.9583333,90.8476821 88,71.4569536 88,49.6821192 L88,14.0794702 L87.525,13.602649 Z" id="Layer-1" stroke="#C8D6E5" stroke-width="4" fill="#C8D6E5" fill-rule="nonzero"></path> <path d="M49.3333333,87.3333333 L49.0222222,87.1743375 C32.2222222,80.8145049 21.3333333,65.8688982 21.3333333,49.1743375 L21.3333333,18.3291492 L21.6444444,18.1701534 C27.7111111,13.4002789 36.5777778,11.3333333 49.3333333,11.3333333 C49.9113087,11.4877478 50.3557531,11.4877478 50.6666667,11.3333333 C63.4222222,11.3333333 72.2888889,13.4002789 78.3555556,18.1701534 L78.6666667,18.3291492 L78.6666667,49.1743375 C78.6666667,65.8688982 67.7777778,80.8145049 50.9777778,87.1743375 L50.6666667,87.3333333 C50.3618183,87.1959591 49.9173739,87.1959591 49.3333333,87.3333333 Z" id="Layer-2" stroke="#FFFFFF" stroke-width="4" fill="#FFFFFF" fill-rule="nonzero"></path> <path d="M56.7,39.3 L56.7,30.9277684 C56.7,30.4147839 56.2827225,30 55.7679846,30 L45.2320154,30 C44.7161159,30 44.3,30.4153761 44.3,30.9277684 L44.3,39.3 L35.9277684,39.3 C35.4147839,39.3 35,39.7172775 35,40.2320154 L35,50.7679846 C35,51.2838841 35.4153761,51.7 35.9277684,51.7 L44.3,51.7 L44.3,60.0722316 C44.3,60.5852161 44.7172775,61 45.2320154,61 L55.7679846,61 C56.2838841,61 56.7,60.5846239 56.7,60.0722316 L56.7,51.7 L65.0722316,51.7 C65.5852161,51.7 66,51.2827225 66,50.7679846 L66,40.2320154 C66,39.7161159 65.5846239,39.3 65.0722316,39.3 L56.7,39.3 L56.7,39.3 Z" id="Layer-3" stroke="#E46565" stroke-width="4" fill="#E46565"></path> </g> </svg>

<svg width="100" height="100" xmlns="http://www.w3.org/2000/svg"><g fill="none" fill-rule="evenodd" stroke-linecap="round" stroke-linejoin="round" stroke-width="4"><path d="M87.525 13.603C79.133 5.497 67.575 2 50 2S20.867 5.497 12.475 13.603l-.475.476V49.682c0 21.775 15.042 41.166 37.525 48.16L50 98l.475-.159C72.958 90.848 88 71.457 88 49.682V14.08l-.475-.476z" stroke="#C8D6E5" fill="#C8D6E5" fill-rule="nonzero"/><path d="M49.333 87.333l-.31-.159c-16.8-6.36-27.69-21.305-27.69-38V18.33l.311-.159c6.067-4.77 14.934-6.837 27.69-6.837.577.155 1.022.155 1.333 0 12.755 0 21.622 2.067 27.689 6.837l.31.16v30.844c0 16.695-10.888 31.64-27.688 38l-.311.16c-.305-.138-.75-.138-1.334 0z" stroke="#FFF" fill="#FFF" fill-rule="nonzero"/><path d="M56.7 39.3v-8.372a.93.93 0 00-.932-.928H45.232a.93.93 0 00-.932.928V39.3h-8.372a.93.93 0 00-.928.932v10.536a.93.93 0 00.928.932H44.3v8.372a.93.93 0 00.932.928h10.536a.93.93 0 00.932-.928V51.7h8.372a.93.93 0 00.928-.932V40.232a.93.93 0 00-.928-.932H56.7h0z" stroke="#E46565" fill="#E46565"/></g></svg>
